icons/evolvere-blue-folders-flat-vivid-dark-fallback/apps/64/scanner.svg

<svg xmlns="http://www.w3.org/2000/svg" viewBox="0 0 64 64"><defs><linearGradient id="2" y1="-56" x2="0" y2="-27" gradientUnits="userSpaceOnUse"><stop stop-opacity=".206"/><stop offset="1" stop-opacity="0"/></linearGradient><linearGradient id="1" gradientUnits="userSpaceOnUse" y1="-56" x2="0" y2="-27"><stop stop-color="#fff" stop-opacity=".303"/><stop offset="1" stop-color="#fff" stop-opacity="0"/></linearGradient><radialGradient id="0" gradientUnits="userSpaceOnUse" gradientTransform="matrix(2.19355 0 0-.77419-.862 99.82)" cx="15.437" cy="63.06" r="15.5"><stop stop-color="#0ff" stop-opacity=".441"/><stop offset=".4" stop-color="#0ff" stop-opacity=".212"/><stop offset=".6" stop-color="#0ff" stop-opacity=".082"/><stop offset=".8" stop-color="#0ff" stop-opacity=".025"/><stop offset="1" stop-color="#0ff" stop-opacity="0"/></radialGradient></defs><g color="#000"><path d="m0 1l2-1h60l2 1v61l-2 2h-60l-2-2z" fill="#9ea8b6"/><path d="m0 1l2-1h60l2 1v3h-64z" fill="#e9ebee"/></g><path d="m64 6l-2-2 2-1z" fill="#c7ced7"/><path d="m0 6l2-2-2-1z" fill="#f1f2f4"/><g color="#000"><path d="m11 58c-2.216 0-4-1.784-4-4v-50h50v50c0 2.216-1.784 4-4 4h-42" fill="#596274" fill-opacity=".614"/><g fill-opacity=".233"><path d="m7 4v50c0 1.353.665 2.527 1.688 3.25-.43-.638-.688-1.419-.688-2.25v-50h49v-1h-50"/><path d="m12 57c-1.108 0-2-.892-2-2v-50h46v50c0 1.108-.892 2-2 2h-42"/></g><path d="m11 58c-2.216 0-4-1.784-4-4v-50h50v50c0 2.216-1.784 4-4 4h-42" fill="#8cebfa"/><path d="m9 64v-6-2h46v8z" fill="url(#0)"/><path d="m11 56c-1.108 0-2-.892-2-2v-50h46v50c0 1.108-.892 2-2 2h-42" fill="#a5b0c0"/><path transform="scale(1-1)" fill="url(#1)" d="m20-56h1v29h-1z"/><path transform="scale(1-1)" fill="url(#2)" d="m42-56h1v29h-1z"/><g fill-opacity=".452" stroke-width="1"><path opacity=".324" d="m55 0h2v4h-2z"/><path opacity=".324" d="m7 0h2v4h-2z"/></g><g fill-opacity=".631"><path opacity=".324" d="m45 1h6v1h-6z"/><path opacity=".324" d="m37 1h6v1h-6z"/></g></g></svg>

<?xml version="1.0" encoding="UTF-8" standalone="no"?>
<!-- Created with Inkscape (http://www.inkscape.org/) -->

<svg
   xmlns:dc="http://purl.org/dc/elements/1.1/"
   xmlns:cc="http://creativecommons.org/ns#"
   xmlns:rdf="http://www.w3.org/1999/02/22-rdf-syntax-ns#"
   xmlns:svg="http://www.w3.org/2000/svg"
   xmlns="http://www.w3.org/2000/svg"
   xmlns:xlink="http://www.w3.org/1999/xlink"
   xmlns:sodipodi="http://sodipodi.sourceforge.net/DTD/sodipodi-0.dtd"
   xmlns:inkscape="http://www.inkscape.org/namespaces/inkscape"
   id="svg13094"
   height="64"
   width="64"
   version="1.1"
   inkscape:version="0.91+devel r"
   sodipodi:docname="scanner.svg"
   inkscape:export-filename="folder.png"
   inkscape:export-xdpi="90"
   inkscape:export-ydpi="90">
  <sodipodi:namedview
     pagecolor="#ffffff"
     bordercolor="#666666"
     borderopacity="1"
     objecttolerance="10"
     gridtolerance="10"
     guidetolerance="10"
     inkscape:pageopacity="0"
     inkscape:pageshadow="2"
     inkscape:window-width="1920"
     inkscape:window-height="1023"
     id="namedview46"
     showgrid="true"
     inkscape:snap-bbox="true"
     inkscape:bbox-paths="true"
     inkscape:bbox-nodes="true"
     inkscape:snap-bbox-edge-midpoints="true"
     inkscape:snap-bbox-midpoints="true"
     inkscape:snap-nodes="true"
     inkscape:object-paths="true"
     inkscape:snap-intersection-paths="true"
     inkscape:object-nodes="true"
     inkscape:snap-smooth-nodes="true"
     inkscape:snap-midpoints="true"
     inkscape:snap-object-midpoints="true"
     inkscape:snap-center="true"
     fit-margin-top="0"
     fit-margin-left="0"
     fit-margin-right="0"
     fit-margin-bottom="0"
     inkscape:zoom="10.429825"
     inkscape:cx="40.412362"
     inkscape:cy="33.941504"
     inkscape:window-x="-10"
     inkscape:window-y="35"
     inkscape:window-maximized="1"
     inkscape:current-layer="svg13094"
     showguides="true"
     inkscape:guide-bbox="true"
     inkscape:snap-page="true"
     inkscape:snap-global="true">
    <inkscape:grid
       type="xygrid"
       id="grid3023"
       empspacing="5"
       visible="true"
       enabled="true"
       snapvisiblegridlinesonly="true"
       originx="-80px"
       originy="-75px" />
  </sodipodi:namedview>
  <defs
     id="defs11">
    <linearGradient
       inkscape:collect="always"
       id="linearGradient4052">
      <stop
         style="stop-color:#000000;stop-opacity:0.20609319"
         offset="0"
         id="stop4054" />
      <stop
         style="stop-color:#000000;stop-opacity:0;"
         offset="1"
         id="stop4056" />
    </linearGradient>
    <linearGradient
       id="linearGradient4030">
      <stop
         style="stop-color:#ffffff;stop-opacity:0.30316743;"
         offset="0"
         id="stop4032" />
      <stop
         style="stop-color:#ffffff;stop-opacity:0;"
         offset="1"
         id="stop4034" />
    </linearGradient>
    <linearGradient
       id="linearGradient3808">
      <stop
         style="stop-color:#00ffff;stop-opacity:0.44149968;"
         offset="0"
         id="stop3810" />
      <stop
         id="stop3821"
         offset="0.40000001"
         style="stop-color:#00ffff;stop-opacity:0.21202327;" />
      <stop
         id="stop3816"
         offset="0.60000002"
         style="stop-color:#00ffff;stop-opacity:0.08209438;" />
      <stop
         style="stop-color:#00ffff;stop-opacity:0.02456367;"
         offset="0.80000001"
         id="stop3818" />
      <stop
         style="stop-color:#00ffff;stop-opacity:0;"
         offset="1"
         id="stop3812" />
    </linearGradient>
    <radialGradient
       inkscape:collect="always"
       xlink:href="#linearGradient3808"
       id="radialGradient3848"
       gradientUnits="userSpaceOnUse"
       gradientTransform="matrix(2.1935484,-1.0522628e-8,-2.3319058e-8,-0.77419352,-0.86193168,99.822572)"
       cx="15.437057"
       cy="63.062492"
       fx="15.437057"
       fy="63.062492"
       r="15.5" />
    <linearGradient
       inkscape:collect="always"
       xlink:href="#linearGradient4030"
       id="linearGradient4050"
       gradientUnits="userSpaceOnUse"
       gradientTransform="translate(-1,-68)"
       x1="21"
       y1="12"
       x2="21"
       y2="41" />
    <linearGradient
       inkscape:collect="always"
       xlink:href="#linearGradient4052"
       id="linearGradient4058"
       x1="44"
       y1="12"
       x2="44"
       y2="41"
       gradientUnits="userSpaceOnUse"
       gradientTransform="translate(-1,-68)" />
  </defs>
  <metadata
     id="metadata13099">
    <rdf:RDF>
      <cc:Work
         rdf:about="">
        <dc:format>image/svg+xml</dc:format>
        <dc:type
           rdf:resource="http://purl.org/dc/dcmitype/StillImage" />
        <dc:title></dc:title>
      </cc:Work>
    </rdf:RDF>
  </metadata>
  <path
     sodipodi:nodetypes="ccccccccc"
     inkscape:connector-curvature="0"
     style="color:#000000;fill:#9ea8b6;fill-opacity:1;fill-rule:nonzero;stroke:none;marker:none;visibility:visible;display:inline;overflow:visible;enable-background:accumulate"
     id="path3812"
     d="M 0,1 2,0 62,0 64,1 64,62 62,64 2,64 0,62 z" />
  <g
     id="g3043"
     inkscape:export-filename="folder.png"
     inkscape:export-xdpi="90"
     inkscape:export-ydpi="90"
     transform="translate(-0.62500009,0.082283)" />
  <path
     d="M 0,1 2,0 62,0 64,1 64,4 0,4 z"
     id="path3029"
     style="color:#000000;fill:#e9ebee;fill-opacity:1;fill-rule:nonzero;stroke:none;marker:none;visibility:visible;display:inline;overflow:visible;enable-background:accumulate"
     inkscape:connector-curvature="0"
     sodipodi:nodetypes="ccccccc" />
  <path
     d="M 64,6 62,4 64,3 z"
     id="path3028"
     style="fill:#c7ced7;fill-opacity:1"
     inkscape:connector-curvature="0" />
  <path
     d="M 0,6 2,4 0,3 z"
     id="path3028-6"
     style="fill:#f1f2f4;fill-opacity:1"
     inkscape:connector-curvature="0" />
  <path
     style="color:#000000;fill:#596274;fill-opacity:0.61379927;fill-rule:nonzero;stroke:none;stroke-width:1;marker:none;visibility:visible;display:inline;overflow:visible;enable-background:accumulate"
     d="M 11,58 C 8.784,58 7,56.216 7,54 L 7,4 57,4 57,54 c 0,2.216 -1.784,4 -4,4 l -42,0 z"
     id="rect3784"
     inkscape:connector-curvature="0" />
  <path
     style="color:#000000;fill:#000000;fill-opacity:0.2329749;fill-rule:nonzero;stroke:none;stroke-width:1;marker:none;visibility:visible;display:inline;overflow:visible;enable-background:accumulate"
     d="m 7,4 0,50 c 0,1.352857 0.6653179,2.526785 1.6875,3.25 C 8.2570469,56.611797 8,55.831 8,55 L 8,5 57,5 57,4 7,4 z"
     id="rect3881"
     inkscape:connector-curvature="0" />
  <path
     style="color:#000000;fill:#000000;fill-opacity:0.23297490000000001;fill-rule:nonzero;stroke:none;stroke-width:1;marker:none;visibility:visible;display:inline;overflow:visible;enable-background:accumulate"
     d="m 12,57 c -1.108,0 -2,-0.892 -2,-2 l 0,-50 46,0 0,50 c 0,1.108 -0.892,2 -2,2 l -42,0 z"
     id="path3881"
     inkscape:connector-curvature="0" />
  <path
     style="color:#000000;fill:#8cebfa;fill-opacity:1;fill-rule:nonzero;stroke:none;stroke-width:1;marker:none;visibility:visible;display:inline;overflow:visible;enable-background:accumulate"
     d="M 11,58 C 8.784,58 7,56.216 7,54 L 7,4 57,4 57,54 c 0,2.216 -1.784,4 -4,4 l -42,0 z"
     id="path3966"
     inkscape:connector-curvature="0" />
  <path
     id="path3846"
     d="m 9,64 0,-6 0,-2 46,0 0,8 z"
     style="color:#000000;fill:url(#radialGradient3848);fill-opacity:1;fill-rule:nonzero;stroke:none;stroke-width:1;marker:none;visibility:visible;display:inline;overflow:visible;enable-background:accumulate"
     inkscape:connector-curvature="0"
     sodipodi:nodetypes="cccccc" />
  <path
     inkscape:connector-curvature="0"
     id="path3927"
     d="M 11,56 C 9.892,56 9,55.108 9,54 L 9,4 55,4 55,54 c 0,1.108 -0.892,2 -2,2 l -42,0 z"
     style="color:#000000;fill:#a5b0c0;fill-opacity:1;fill-rule:nonzero;stroke:none;stroke-width:1;marker:none;visibility:visible;display:inline;overflow:visible;enable-background:accumulate" />
  <rect
     ry="0"
     rx="0"
     y="-56"
     x="20"
     height="29"
     width="1"
     id="rect4048"
     style="color:#000000;fill:url(#linearGradient4050);fill-opacity:1;fill-rule:nonzero;stroke:none;stroke-width:1;marker:none;visibility:visible;display:inline;overflow:visible;enable-background:accumulate"
     transform="scale(1,-1)" />
  <rect
     style="color:#000000;fill:url(#linearGradient4058);fill-opacity:1;fill-rule:nonzero;stroke:none;stroke-width:1;marker:none;visibility:visible;display:inline;overflow:visible;enable-background:accumulate"
     id="rect4044"
     width="1"
     height="29"
     x="42"
     y="-56"
     rx="0"
     ry="0"
     transform="scale(1,-1)" />
  <g
     id="g4022"
     transform="translate(1)">
    <rect
       y="0"
       x="54"
       height="4"
       width="2"
       id="rect4026"
       style="color:#000000;display:inline;overflow:visible;visibility:visible;opacity:0.32370959;fill:#000000;fill-opacity:0.45161288;fill-rule:nonzero;stroke:none;stroke-width:1;marker:none;enable-background:accumulate" />
  </g>
  <g
     id="g4017"
     transform="translate(-47,0)">
    <rect
       style="opacity:0.32370959;color:#000000;fill:#000000;fill-opacity:0.45161288;fill-rule:nonzero;stroke:none;stroke-width:1;marker:none;visibility:visible;display:inline;overflow:visible;enable-background:accumulate"
       id="rect4009"
       width="2"
       height="4"
       x="54"
       y="0" />
  </g>
  <rect
     y="1"
     x="45"
     height="1"
     width="6"
     id="rect4057"
     style="opacity:0.32370959;color:#000000;fill:#000000;fill-opacity:0.63082437;fill-rule:nonzero;stroke:none;stroke-width:1;marker:none;visibility:visible;display:inline;overflow:visible;enable-background:accumulate" />
  <rect
     style="opacity:0.32370959;color:#000000;fill:#000000;fill-opacity:0.63082437;fill-rule:nonzero;stroke:none;stroke-width:1;marker:none;visibility:visible;display:inline;overflow:visible;enable-background:accumulate"
     id="rect4049"
     width="6"
     height="1"
     x="37"
     y="1" />
</svg>
